Numix-GalliumOS/32/categories/applications-ide.svg

<?xml version="1.0" encoding="UTF-8" standalone="no"?>
<svg
   xmlns:dc="http://purl.org/dc/elements/1.1/"
   xmlns:cc="http://creativecommons.org/ns#"
   xmlns:rdf="http://www.w3.org/1999/02/22-rdf-syntax-ns#"
   xmlns:svg="http://www.w3.org/2000/svg"
   xmlns="http://www.w3.org/2000/svg"
   xmlns:sodipodi="http://sodipodi.sourceforge.net/DTD/sodipodi-0.dtd"
   xmlns:inkscape="http://www.inkscape.org/namespaces/inkscape"
   width="32"
   height="32"
   viewBox="0 0 32 32"
   id="svg2"
   version="1.1"
   inkscape:version="0.91 r"
   sodipodi:docname="applications-ide.svg">
  <metadata
     id="metadata10">
    <rdf:RDF>
      <cc:Work
         rdf:about="">
        <dc:format>image/svg+xml</dc:format>
        <dc:type
           rdf:resource="http://purl.org/dc/dcmitype/StillImage" />
      </cc:Work>
    </rdf:RDF>
  </metadata>
  <defs
     id="defs8" />
  <sodipodi:namedview
     pagecolor="#ffffff"
     bordercolor="#666666"
     borderopacity="1"
     objecttolerance="10"
     gridtolerance="10"
     guidetolerance="10"
     inkscape:pageopacity="0"
     inkscape:pageshadow="2"
     inkscape:window-width="640"
     inkscape:window-height="480"
     id="namedview6" />
  <path
     style="fill:#cc7d6f"
     d="M 26.261719 3.464844 C 25.882812 3.5 25.503906 3.6875 25.199219 3.984375 L 18.386719 9.910156 C 18.09375 10.191406 17.929688 10.59375 17.929688 10.996094 C 17.929688 11.191406 17.972656 11.367188 18.042969 11.539062 C 18.046875 11.550781 18.039062 11.5625 18.042969 11.570312 C 17.789062 12.109375 17.871094 12.863281 17.871094 14.488281 C 17.871094 15.089844 16.3125 15.71875 15.925781 15.71875 C 15.90625 15.71875 15.886719 15.71875 15.867188 15.71875 C 14.628906 15.71875 10.609375 15.90625 9.367188 17.609375 C 8.128906 19.316406 3.46875 27.066406 3.46875 28.203125 C 5.328125 28.203125 18.839844 21.453125 19.53125 20.816406 C 20.367188 20.050781 19.957031 18.5 19.417969 17.46875 C 19.421875 17.464844 19.414062 17.445312 19.417969 17.4375 C 19.429688 17.402344 19.4375 17.347656 19.386719 17.265625 C 19.097656 16.78125 18.929688 16.289062 18.929688 15.605469 C 18.929688 14.089844 19.089844 13.253906 19.417969 12.773438 C 20.144531 12.898438 21.207031 12.542969 21.679688 12.085938 L 27.664062 6.386719 C 28.269531 5.800781 28.414062 4.914062 27.804688 4.324219 L 27.316406 3.839844 C 27.015625 3.542969 26.632812 3.4375 26.261719 3.46875 Z "
     id="path4" />
</svg>

<svg xmlns="http://www.w3.org/2000/svg" viewBox="0 0 32 32">
 <path d="m 26.26 3.465 c -0.379 0.035 -0.758 0.223 -1.063 0.52 l -6.813 5.926 c -0.293 0.281 -0.457 0.684 -0.457 1.086 c 0 0.195 0.043 0.371 0.113 0.543 c 0.004 0.012 -0.004 0.023 0 0.031 c -0.254 0.539 -0.172 1.293 -0.172 2.918 c 0 0.602 -1.559 1.23 -1.945 1.23 c -0.02 0 -0.039 0 -0.059 0 c -1.238 0 -5.258 0.188 -6.5 1.891 c -1.238 1.707 -5.898 9.457 -5.898 10.594 c 1.859 0 15.371 -6.75 16.06 -7.387 c 0.836 -0.766 0.426 -2.316 -0.113 -3.348 c 0.004 -0.004 -0.004 -0.023 0 -0.031 c 0.012 -0.035 0.02 -0.09 -0.031 -0.172 c -0.289 -0.484 -0.457 -0.977 -0.457 -1.66 c 0 -1.516 0.16 -2.352 0.488 -2.832 c 0.727 0.125 1.789 -0.23 2.262 -0.688 l 5.984 -5.699 c 0.605 -0.586 0.75 -1.473 0.141 -2.063 l -0.488 -0.484 c -0.301 -0.297 -0.684 -0.402 -1.055 -0.371 Z" style="fill:#cc7d6f"/>
</svg>
